static/img/jdbc.svg

<svg xmlns="http://www.w3.org/2000/svg" width="40" height="40" fill="none" viewBox="0 0 40 40"><rect width="40" height="40" fill="#f2f4f7" rx="8"/><rect width="16" height="16" x="12" y="12" fill="#0369a1" rx="2"/><path stroke="#fff" d="M16 16h8M16 20h8M16 24h8"/><path stroke="#0369a1" d="M28 20h2m0 0v2m0-2v-2M10 20h2m-2 0v2m0-2v-2"/></svg>

<svg width="40" height="40" viewBox="0 0 40 40" fill="none" xmlns="http://www.w3.org/2000/svg">
    <rect width="40" height="40" rx="8" fill="#F2F4F7" />
    <rect x="12" y="12" width="16" height="16" rx="2" fill="#0369A1" />
    <path d="M16 16H24" stroke="white" strokeWidth="1.5" strokeLinecap="round" />
    <path d="M16 20H24" stroke="white" strokeWidth="1.5" strokeLinecap="round" />
    <path d="M16 24H24" stroke="white" strokeWidth="1.5" strokeLinecap="round" />
    <path d="M28 20H30M30 20V22M30 20V18" stroke="#0369A1" strokeWidth="1.5" strokeLinecap="round"
        strokeLinejoin="round" />
    <path d="M10 20H12M10 20V22M10 20V18" stroke="#0369A1" strokeWidth="1.5" strokeLinecap="round"
        strokeLinejoin="round" />
</svg>
